X:1
T: Mignonette
N:
C:Terry Willetts
S:aka "Roseda Odorata"
A:
O:
R:
M:3/4
K:G
I:speed 150
%W: A1
% voice 1 (1 lines, 35 notes)
K:G
M:3/4
L:1/16
G2 D2 B2 G2 d2 B2 |g6 f2 e4 |d4 c4 B4 |A2 G2 F2 G2 A4 |G2 D2 B2 G2 d2 B2 |g6 f2 e4 |f2 a2 d2 f2 A2 ^c2 |d4 c4 A4 |
%W: A2
% voice 1 (1 lines, 33 notes)
G2 D2 B2 G2 d2 B2 |g6 f2 e4 |d4 c4 B4 |A2 G2 F2 G2 A4 |G2 D2 B2 G2 d2 B2 |g6 f2 e4 |f2 a2 d2 f2 A2 ^c2 |d12 |
%W: B1
% voice 1 (1 lines, 32 notes)
a4 g4 f4 |g4 d4 g4 |e2 d2 c2 B2 A2 G2 |F6 G2 A4 |B2 G2 d2 B2 g2 d2 |b6 a2 g2 d2 |e2 c'2 d2 b2 c2 a2 |g12 |
%W: B2
% voice 1 (1 lines, 32 notes)
a4 g4 f4 |g4 d4 g4 |e2 d2 c2 B2 A2 G2 |F6 G2 A4 |B2 G2 d2 B2 g2 d2 |b6 a2 g2 d2 |e2 c'2 d2 b2 c2 a2 |g12 ||
